X:1
T:Le Capuchine de Maidon. Roose.0619
C:'Cotillon'
L:1/8
Q:1/2=80
M:2/2
I:linebreak $
K:G
V:1 treble 
V:1
|: g2 d2 B2 G2 | AGAB G4 | AGAB c2 B2 | ABcA B2 G2 | g2 d2 B2 G2 | AGAB G4 | AGAB c2 B2 | %7
 AGAB G4 ::$ B2 c2 B2 A2 | B2 c2 B2 A2 | B2 c2 B2 A2 | GABc d4 :: g2 d2 B2 G2 | AGAB G4 | %14
 AGAB c2 B2 | ABcA B2 G2 |$ g2 d2 B2 G2 | AGAB G4 | AGAB c2 B2 | AGAB G4 :| %20
